archcraft-icons-qogir/files/Qogir/scalable/apps/de.haeckerfelix.Fragments.svg

<svg width="64" height="64" version="1.0" xmlns="http://www.w3.org/2000/svg">
 <g stroke-width=".47785">
  <path d="m32 3c-0.9772 0-1.9544 0.37368-2.7027 1.1229l-25.177 25.176a3.7999 3.7999 0 0 0-1.1191 2.7032h-9.557e-4v0.9557h9.557e-4a3.7999 3.7999 0 0 0 1.1191 2.7027l25.177 25.177a3.8137 3.8137 0 0 0 5.4054 0l25.177-25.177a3.7999 3.7999 0 0 0 1.1191-2.7027h9.56e-4v-0.9557h-9.56e-4a3.7989 3.7989 0 0 0-1.1191-2.7027l-25.177-25.177a3.8094 3.8094 0 0 0-2.7027-1.1229z" fill="#1c71d8" stroke="#000" stroke-opacity=".70588" stroke-width="2"/>
  <path d="m32 3c-0.9772 0-1.9544 0.37368-2.7027 1.1229l-25.177 25.176a3.7999 3.7999 0 0 0-1.1191 2.7032h-9.557e-4v0.9557h9.557e-4a3.7999 3.7999 0 0 0 1.1191 2.7027l25.177 25.177a3.8137 3.8137 0 0 0 5.4054 0l25.177-25.177a3.7999 3.7999 0 0 0 1.1191-2.7027h9.56e-4v-0.9557h-9.56e-4a3.7989 3.7989 0 0 0-1.1191-2.7027l-25.177-25.177a3.8094 3.8094 0 0 0-2.7027-1.1229z" fill="#1c71d8"/>
  <path d="m24.354 24.356 7.6456-7.6456v15.291l-7.6456 7.6456z" fill="#26a269"/>
  <path d="m16.719 31.99-7.6562 7.6582v0.95508l7.6465 7.6465v-0.95703l7.6445-7.6445-7.6348-7.6582z" fill="#813d9c"/>
  <path d="m39.645 39.648-15.291 15.291v-15.291l15.24-15.407z" fill="#98c1f1"/>
  <path d="m39.645 9.0664-7.6445 7.6445v15.291l15.291-15.291-7.6465-7.6445z" fill="#2ec27e"/>
  <path d="m16.725 16.695-5.8184 5.8184-6.9492 6.9648a3.7999 3.7999 0 0 0-0.95703 2.5234v0.95508a3.7999 3.7999 0 0 0 1.1191 2.7031l4.9434 4.9434v-0.95508l15.291-15.291-7.6289-7.6621z" fill="#613583"/>
  <path d="m32 3c-0.9772 0-1.9548 0.37378-2.7031 1.123l-12.588 12.588 7.6445 7.6465 15.285-15.299-4.9355-4.9355a3.8094 3.8094 0 0 0-2.7031-1.123z" fill="#f5c211"/>
  <path d="m47.291 16.711-0.03125 16.199 7.6855 7.6855 4.9336-4.9355a3.7999 3.7999 0 0 0 1.1191-2.7031h0.001953v-0.95508h-0.001953a3.7989 3.7989 0 0 0-1.1191-2.7031l-12.588-12.588z" fill="#e01b24"/>
  <path d="m32 32.002 15.291-15.291v15.291l-7.6456 7.6456z" fill="#ff7800"/>
  <path d="m32 16.711 7.6456 7.6456 7.6456-7.6456-7.6456-7.6456z" fill="#fff" opacity=".2"/>
  <path d="m16.709 16.711-12.59 12.588a3.7999 3.7999 0 0 0-0.25391 0.28125l12.844-12.869z" fill="#dc8add"/>
  <path d="m16.708 16.711 7.6456 7.6456 7.6456-7.6456z" fill="#e5a50a"/>
  <path d="m39.645 39.648 7.6513 7.6399-0.005734-15.285z" fill="#ffa348"/>
  <path d="m24.354 39.648 7.6456-7.6456-7.6384-7.5897z" fill="#3584e4"/>
  <path d="m47.291 32.002 0.005859 16.24 7.6387-7.6387v-0.94727l-7.6445-7.6543z" fill="#f66151"/>
  <path d="m24.354 39.648-7.6445 7.6445v0.95703l7.6445 7.6445v-16.246z" fill="#c061cb"/>
  <path d="m32 32.002-7.6456-7.6456-7.6456 7.6456z" fill="#1a5fb4"/>
  <path d="m32 32.002-7.6456 7.6456-7.6346-7.6566z" fill="#3584e4"/>
  <path d="m3.0004 32.002v0.9557h4.778e-4a3.7999 3.7999 0 0 0 1.1191 2.7027l25.177 25.177a3.8137 3.8137 0 0 0 5.4054 0l25.177-25.177a3.7999 3.7999 0 0 0 1.1191-2.7027h4.78e-4v-0.9557h-4.78e-4a3.7999 3.7999 0 0 1-1.1191 2.7027l-25.177 25.177a3.8137 3.8137 0 0 1-5.4054 0l-25.177-25.177a3.7999 3.7999 0 0 1-1.1191-2.7027h-9.557e-4z" opacity=".2"/>
 </g>
</svg>

<svg xmlns="http://www.w3.org/2000/svg" width="64" height="64" version="1.0"><g stroke-width=".478"><path fill="#1c71d8" stroke="#000" stroke-opacity=".706" stroke-width="2" d="M32 3c-.977 0-1.954.374-2.703 1.123L4.12 29.299a3.8 3.8 0 0 0-1.119 2.703v.956a3.8 3.8 0 0 0 1.12 2.703l25.176 25.176a3.814 3.814 0 0 0 5.406 0L59.88 35.66a3.8 3.8 0 0 0 1.119-2.702v-.956a3.799 3.799 0 0 0-1.12-2.703L34.704 4.122A3.81 3.81 0 0 0 32 3z"/><path fill="#1c71d8" d="M32 3c-.977 0-1.954.374-2.703 1.123L4.12 29.299a3.8 3.8 0 0 0-1.119 2.703v.956a3.8 3.8 0 0 0 1.12 2.703l25.176 25.176a3.814 3.814 0 0 0 5.406 0L59.88 35.66a3.8 3.8 0 0 0 1.119-2.702v-.956a3.799 3.799 0 0 0-1.12-2.703L34.704 4.122A3.81 3.81 0 0 0 32 3z"/><path fill="#26a269" d="M24.354 24.356 32 16.71v15.291l-7.646 7.646z"/><path fill="#813d9c" d="m16.719 31.99-7.656 7.658v.955l7.646 7.647v-.957l7.645-7.645-7.635-7.658z"/><path fill="#98c1f1" d="M39.645 39.648 24.354 54.939V39.648l15.24-15.407z"/><path fill="#2ec27e" d="m39.645 9.066-7.644 7.645V32l15.29-15.29-7.646-7.645z"/><path fill="#613583" d="m16.725 16.695-5.818 5.818-6.95 6.965A3.8 3.8 0 0 0 3 32.002v.955a3.8 3.8 0 0 0 1.12 2.703l4.943 4.943v-.955l15.29-15.29-7.628-7.663z"/><path fill="#f5c211" d="M32 3c-.977 0-1.955.374-2.703 1.123L16.709 16.711l7.644 7.646L39.638 9.058l-4.935-4.935A3.81 3.81 0 0 0 32 3z"/><path fill="#e01b24" d="M47.291 16.711 47.26 32.91l7.685 7.686 4.934-4.936a3.8 3.8 0 0 0 1.119-2.703H61v-.955h-.002a3.799 3.799 0 0 0-1.12-2.703L47.292 16.71z"/><path fill="#ff7800" d="m32 32.002 15.291-15.291v15.291l-7.646 7.646z"/><path fill="#fff" d="m32 16.711 7.646 7.646 7.645-7.646-7.645-7.646z" opacity=".2"/><path fill="#dc8add" d="M16.709 16.711 4.119 29.299a3.8 3.8 0 0 0-.254.281L16.71 16.711z"/><path fill="#e5a50a" d="m16.708 16.711 7.646 7.646 7.645-7.646z"/><path fill="#ffa348" d="m39.645 39.648 7.651 7.64-.005-15.285z"/><path fill="#3584e4" d="M24.354 39.648 32 32.002l-7.639-7.59z"/><path fill="#f66151" d="m47.291 32.002.006 16.24 7.639-7.639v-.947l-7.645-7.654z"/><path fill="#c061cb" d="m24.354 39.648-7.644 7.644v.958l7.644 7.644V39.648z"/><path fill="#1a5fb4" d="m32 32.002-7.646-7.646-7.645 7.646z"/><path fill="#3584e4" d="m32 32.002-7.646 7.646-7.634-7.657z"/><path d="M3 32.002v.956a3.8 3.8 0 0 0 1.12 2.702l25.177 25.177a3.814 3.814 0 0 0 5.405 0L59.88 35.66A3.8 3.8 0 0 0 61 32.958v-.956a3.8 3.8 0 0 1-1.12 2.703L34.702 59.882a3.814 3.814 0 0 1-5.405 0L4.12 34.705A3.8 3.8 0 0 1 3 32.002z" opacity=".2"/></g></svg>
